public/img/clients/canada-post.svg

<svg width="200" height="100" viewBox="0 0 200 100" fill="none" xmlns="http://www.w3.org/2000/svg">
<path d="M66.61 38.14H65.89V42.56H66.61C67.1961 42.56 67.7583 42.3272 68.1727 41.9127C68.5872 41.4983 68.82 40.9361 68.82 40.35C68.82 39.7639 68.5872 39.2018 68.1727 38.7873C67.7583 38.3729 67.1961 38.14 66.61 38.14Z" fill="black"/>
<path d="M75 41.07H76.85L75.95 38.43L75 41.07Z" fill="black"/>
<path d="M129.43 58.21H131.26L130.34 55.56L129.43 58.21Z" fill="black"/>
<path d="M130.12 42.66C131.4 42.66 131.89 41.48 131.89 40.33C131.89 39.18 131.38 38 130.12 38C128.86 38 128.32 39.16 128.32 40.29C128.32 41.42 128.84 42.66 130.12 42.66Z" fill="black"/>
<path d="M40.4 55.16C39.11 55.16 38.63 56.31 38.63 57.44C38.63 58.57 39.12 59.78 40.4 59.78C41.68 59.78 42.2 58.62 42.2 57.44C42.2 56.26 41.69 55.16 40.4 55.16Z" fill="black"/>
<path d="M58.32 38.43L57.32 41.07H59.26L58.37 38.43H58.32Z" fill="black"/>
<path d="M122.8 39.17C122.8 38.43 122.24 38.17 121.6 38.17H121.16V40.12H121.6C122.24 40.12 122.8 39.91 122.8 39.17Z" fill="black"/>
<path d="M39.71 41.07H41.56L40.64 38.43L39.71 41.07Z" fill="black"/>
<path d="M31.88 55.31H31.45V57.26H31.88C32.53 57.26 33.09 57.05 33.09 56.31C33.09 55.57 32.53 55.31 31.88 55.31Z" fill="black"/>
<path d="M147.06 58.21H148.9L148 55.54L147.06 58.21Z" fill="black"/>
<path d="M156.32 55.26H155.6V59.68H156.32C156.906 59.68 157.468 59.4472 157.883 59.0327C158.297 58.6183 158.53 58.0561 158.53 57.47C158.53 56.8839 158.297 56.3218 157.883 55.9073C157.468 55.4929 156.906 55.26 156.32 55.26Z" fill="black"/>
<path d="M165.69 55.54L164.76 58.21H166.61L165.69 55.54Z" fill="black"/>
<path d="M22.5 30.43V48.43H84.5C84.5 44.4703 86.073 40.6728 88.8729 37.8729C91.6728 35.073 95.4703 33.5 99.43 33.5C103.39 33.5 107.187 35.073 109.987 37.8729C112.787 40.6728 114.36 44.4703 114.36 48.43H176.06V49.35H114.36C114.234 53.2411 112.592 56.9288 109.784 59.6259C106.976 62.323 103.226 63.8159 99.3328 63.7858C95.4397 63.7558 91.7126 62.2053 88.947 59.4652C86.1813 56.7252 84.5962 53.0126 84.53 49.12V49.36H22.53V67.36H176.53V30.36L22.5 30.43ZM31.56 40.43C31.5324 40.706 31.5599 40.9847 31.6406 41.2501C31.7214 41.5154 31.8539 41.7622 32.0306 41.976C32.2073 42.1899 32.4245 42.3666 32.6699 42.496C32.9152 42.6254 33.1838 42.7049 33.46 42.73H33.71C34.1892 42.7383 34.6641 42.6392 35.1 42.44V43.52C34.6319 43.6391 34.1526 43.7095 33.67 43.73C31.61 43.73 30.18 42.68 30.18 40.52C30.1316 40.0987 30.1683 39.6719 30.2878 39.265C30.4074 38.8582 30.6073 38.4794 30.8759 38.1512C31.1444 37.8229 31.4761 37.5519 31.8513 37.3542C32.2264 37.1565 32.6375 37.036 33.06 37C33.2695 36.98 33.4805 36.98 33.69 37C34.1782 37.0019 34.6623 37.0899 35.12 37.26L35.05 38.34C34.6377 38.1008 34.1663 37.983 33.69 38C33.4099 37.9973 33.1321 38.0502 32.8726 38.1556C32.613 38.2609 32.377 38.4167 32.178 38.6138C31.979 38.8109 31.8211 39.0455 31.7133 39.3041C31.6055 39.5626 31.55 39.8399 31.55 40.12C31.5386 40.2099 31.5419 40.3011 31.56 40.39V40.43ZM42.67 43.61L42.13 42.15H39.56L39 43.57H37.66L40.15 37.13H41.59L44.08 43.57L42.67 43.61ZM52.32 43.61H50.75L48.34 38.81V43.61H47.14V37.13H48.68L51.08 42V37.13H52.32V43.61ZM60.32 43.61L59.78 42.15H57.22L56.65 43.61H55.34L57.81 37.17H59.24L61.73 43.61H60.32ZM66.58 43.61H64.84V37.13H66.58C68.58 37.13 70.25 37.8 70.25 40.36C70.25 42.92 68.53 43.57 66.58 43.57V43.61ZM78 43.61L77.47 42.15H74.9L74.33 43.61H73L75.44 37.17H76.88L79.44 43.61H78ZM121.91 41.17H121.37V43.61H120.09V37.13H121.71C123.09 37.13 124.35 37.54 124.35 39.08C124.35 40.62 123.27 41.13 121.91 41.13V41.17ZM133.43 40.38C133.43 42.33 132.33 43.74 130.33 43.74C128.33 43.74 127.22 42.35 127.22 40.38C127.197 39.5748 127.487 38.7919 128.028 38.1953C128.569 37.5987 129.32 37.2345 130.124 37.1789C130.927 37.1233 131.721 37.3808 132.339 37.8972C132.957 38.4137 133.352 39.1493 133.44 39.95C133.445 40.0801 133.441 40.2103 133.43 40.34V40.38ZM138.36 43.76C137.804 43.753 137.252 43.6689 136.72 43.51L136.85 42.35C137.282 42.6104 137.776 42.7518 138.28 42.76C138.77 42.76 139.41 42.5 139.41 41.94C139.41 40.71 136.64 41.22 136.64 39.09C136.64 37.65 137.74 37.14 138.85 37.14C139.363 37.1316 139.873 37.2093 140.36 37.37L140.29 38.37C139.892 38.1554 139.452 38.0292 139 38C138.885 37.983 138.768 37.989 138.655 38.0176C138.543 38.0462 138.437 38.0968 138.344 38.1666C138.251 38.2363 138.172 38.3238 138.113 38.4239C138.055 38.524 138.016 38.6349 138 38.75C137.995 38.7965 137.995 38.8435 138 38.89C138 40.02 140.77 39.54 140.77 41.69C140.75 43.13 139.64 43.72 138.36 43.72V43.76ZM148.45 38.19H146.62V43.61H145.37V38.15H143.54V37.15H148.45V38.19ZM155.3 43.61H151.53V37.13H155.27V38.13H152.81V39.73H155.07V40.73H152.81V42.55H155.3V43.61ZM160.38 43.76C159.831 43.7526 159.286 43.6684 158.76 43.51L158.86 42.35C159.296 42.6103 159.792 42.7517 160.3 42.76C160.79 42.76 161.43 42.5 161.43 41.94C161.43 40.71 158.66 41.22 158.66 39.09C158.66 37.65 159.76 37.14 160.87 37.14C161.383 37.1316 161.893 37.2093 162.38 37.37L162.28 38.37C161.886 38.1541 161.449 38.0278 161 38C160.885 37.983 160.768 37.989 160.655 38.0176C160.543 38.0462 160.437 38.0968 160.344 38.1666C160.251 38.2363 160.172 38.3238 160.113 38.4239C160.055 38.524 160.016 38.6349 160 38.75C159.995 38.7965 159.995 38.8435 160 38.89C160 40.02 162.78 39.54 162.78 41.69C162.77 43.13 161.66 43.72 160.38 43.72V43.76ZM32.2 58.27H31.66V60.71H30.4V54.27H32C33.39 54.27 34.65 54.68 34.65 56.22C34.65 57.76 33.56 58.27 32.2 58.27ZM43.72 57.45C43.72 59.4 42.64 60.81 40.61 60.81C38.58 60.81 37.47 59.43 37.47 57.45C37.4401 56.6368 37.7271 55.8437 38.2704 55.238C38.8138 54.6322 39.5711 54.261 40.3827 54.2027C41.1944 54.1443 41.997 54.4034 42.6214 54.9252C43.2458 55.447 43.6433 56.1909 43.73 57C43.737 57.15 43.7337 57.3004 43.72 57.45ZM48.72 60.86C48.1743 60.8526 47.6323 60.7684 47.11 60.61L47.21 59.45C47.6534 59.6895 48.1463 59.823 48.65 59.84C49.13 59.84 49.77 59.58 49.77 59.02C49.77 57.78 47 58.3 47 56.17C47 55.6395 47.2107 55.1308 47.5858 54.7558C47.9609 54.3807 48.4696 54.17 49 54.17H49.23C49.7427 54.1616 50.2531 54.2393 50.74 54.4L50.64 55.48C50.2375 55.2985 49.8015 55.2032 49.36 55.2C49.245 55.183 49.1278 55.189 49.0152 55.2176C48.9025 55.2462 48.7967 55.2969 48.7037 55.3666C48.6107 55.4363 48.5325 55.5238 48.4735 55.6239C48.4145 55.724 48.3759 55.8349 48.36 55.95C48.355 55.9999 48.355 56.0501 48.36 56.1C48.36 57.2 51.13 56.74 51.13 58.89C51.06 60.28 50 60.86 48.67 60.86H48.72ZM58.78 55.27H56.94V60.69H55.65V55.27H53.83V54.27H58.73L58.78 55.27ZM121.27 57.48C121.22 58.0316 121.391 58.5804 121.745 59.0061C122.1 59.4317 122.608 59.6992 123.16 59.75H123.42C123.895 59.7564 124.367 59.6716 124.81 59.5V60.6C124.337 60.7107 123.855 60.7776 123.37 60.8C121.32 60.8 119.91 59.8 119.91 57.57C119.87 57.1568 119.912 56.7397 120.034 56.3428C120.156 55.946 120.355 55.5771 120.62 55.2574C120.885 54.9377 121.21 54.6735 121.577 54.48C121.945 54.2866 122.347 54.1676 122.76 54.13C122.963 54.11 123.167 54.11 123.37 54.13C123.861 54.1319 124.349 54.2199 124.81 54.39L124.73 55.47C124.315 55.2205 123.834 55.102 123.35 55.13C123.067 55.13 122.787 55.186 122.526 55.2948C122.265 55.4036 122.029 55.563 121.83 55.7638C121.631 55.9647 121.473 56.2029 121.367 56.4649C121.261 56.7268 121.207 57.0073 121.21 57.29C121.208 57.3535 121.211 57.4171 121.22 57.48H121.27ZM132.41 60.71L131.87 59.25H129.3L128.74 60.71H127.43L129.89 54.27H131.33L133.82 60.71H132.41ZM142.08 60.71H140.52L138.1 55.91V60.71H136.86V54.27H138.43L140.84 59.07V54.27H142L142.08 60.71ZM150.08 60.71L149.49 59.25H146.9L146.34 60.71H145L147.49 54.27H149L151.51 60.71H150.08ZM156.29 60.71H154.55V54.27H156.29C158.24 54.27 159.96 54.94 159.96 57.48C159.96 60.02 158.22 60.69 156.27 60.69L156.29 60.71ZM167.71 60.71L167.17 59.25H164.61L164 60.71H162.69L165.16 54.27H166.59L169.08 60.71H167.71Z" fill="black"/>
<path d="M94.53 50.94L95.58 49.87L107.41 49.33L107.95 48.79H96.27L89.93 41.27L111.13 48.43L104.05 55.62H89.93L91.34 54.18L103.17 53.64L103.69 53.1H92.4L93.45 52.02L105.28 51.48L105.82 50.94H94.53Z" fill="#070707"/>
</svg>

<svg xmlns="http://www.w3.org/2000/svg" focusable="false" role="img" viewBox="0 0 200 100" fill="currentColor">
  <path d="M66.61 38.14h-.72v4.42h.72a2.21 2.21 0 100-4.42zM75 41.07h1.85l-.9-2.64-.95 2.64zM129.43 58.21h1.83l-.92-2.65-.91 2.65zM130.12 42.66c1.28 0 1.77-1.18 1.77-2.33 0-1.15-.51-2.33-1.77-2.33s-1.8 1.16-1.8 2.29c0 1.13.52 2.37 1.8 2.37zM40.4 55.16c-1.29 0-1.77 1.15-1.77 2.28s.49 2.34 1.77 2.34 1.8-1.16 1.8-2.34-.51-2.28-1.8-2.28zM58.32 38.43l-1 2.64h1.94l-.89-2.64h-.05zM122.8 39.17c0-.74-.56-1-1.2-1h-.44v1.95h.44c.64 0 1.2-.21 1.2-.95zM39.71 41.07h1.85l-.92-2.64-.93 2.64zM31.88 55.31h-.43v1.95h.43c.65 0 1.21-.21 1.21-.95s-.56-1-1.21-1zM147.06 58.21h1.84l-.9-2.67-.94 2.67zM156.32 55.26h-.72v4.42h.72a2.212 2.212 0 001.563-3.773 2.212 2.212 0 00-1.563-.647zM165.69 55.54l-.93 2.67h1.85l-.92-2.67z"/>
  <path d="M22.5 30.43v18h62a14.93 14.93 0 0129.86 0h61.7v.92h-61.7a14.917 14.917 0 01-15.027 14.436A14.92 14.92 0 0184.53 49.12v.24h-62v18h154v-37l-154.03.07zm9.06 10a2.1 2.1 0 001.9 2.3h.25c.48.008.954-.09 1.39-.29v1.08c-.468.12-.947.19-1.43.21-2.06 0-3.49-1.05-3.49-3.21A3.17 3.17 0 0133.06 37c.21-.02.42-.02.63 0 .488.002.972.09 1.43.26l-.07 1.08a2.53 2.53 0 00-1.36-.34 2.12 2.12 0 00-2.14 2.12.83.83 0 00.01.27v.04zm11.11 3.18l-.54-1.46h-2.57L39 43.57h-1.34l2.49-6.44h1.44l2.49 6.44-1.41.04zm9.65 0h-1.57l-2.41-4.8v4.8h-1.2v-6.48h1.54l2.4 4.87v-4.87h1.24v6.48zm8 0l-.54-1.46h-2.56l-.57 1.46h-1.31l2.47-6.44h1.43l2.49 6.44h-1.41zm6.26 0h-1.74v-6.48h1.74c2 0 3.67.67 3.67 3.23s-1.72 3.21-3.67 3.21v.04zm11.42 0l-.53-1.46H74.9l-.57 1.46H73l2.44-6.44h1.44l2.56 6.44H78zm43.91-2.44h-.54v2.44h-1.28v-6.48h1.62c1.38 0 2.64.41 2.64 1.95s-1.08 2.05-2.44 2.05v.04zm11.52-.79c0 1.95-1.1 3.36-3.1 3.36s-3.11-1.39-3.11-3.36a3.12 3.12 0 016.22-.43c.005.13.001.26-.01.39v.04zm4.93 3.38a5.994 5.994 0 01-1.64-.25l.13-1.16c.432.26.926.402 1.43.41.49 0 1.13-.26 1.13-.82 0-1.23-2.77-.72-2.77-2.85 0-1.44 1.1-1.95 2.21-1.95a4.58 4.58 0 011.51.23l-.07 1A3.145 3.145 0 00139 38a.884.884 0 00-.887.424.9.9 0 00-.113.326.655.655 0 000 .14c0 1.13 2.77.65 2.77 2.8-.02 1.44-1.13 2.03-2.41 2.03v.04zm10.09-5.57h-1.83v5.42h-1.25v-5.46h-1.83v-1h4.91v1.04zm6.85 5.42h-3.77v-6.48h3.74v1h-2.46v1.6h2.26v1h-2.26v1.82h2.49v1.06zm5.08.15a5.892 5.892 0 01-1.62-.25l.1-1.16a2.9 2.9 0 001.44.41c.49 0 1.13-.26 1.13-.82 0-1.23-2.77-.72-2.77-2.85 0-1.44 1.1-1.95 2.21-1.95a4.58 4.58 0 011.51.23l-.1 1A3.056 3.056 0 00161 38a.884.884 0 00-.887.424.9.9 0 00-.113.326.655.655 0 000 .14c0 1.13 2.78.65 2.78 2.8-.01 1.44-1.12 2.03-2.4 2.03v.04zM32.2 58.27h-.54v2.44H30.4v-6.44H32c1.39 0 2.65.41 2.65 1.95s-1.09 2.05-2.45 2.05zm11.52-.82c0 1.95-1.08 3.36-3.11 3.36s-3.14-1.38-3.14-3.36a3.14 3.14 0 016.26-.45c.007.15.004.3-.01.45zm5 3.41a5.82 5.82 0 01-1.61-.25l.1-1.16c.443.24.936.373 1.44.39.48 0 1.12-.26 1.12-.82 0-1.24-2.77-.72-2.77-2.85a2 2 0 012-2h.23a4.58 4.58 0 011.51.23l-.1 1.08a3.17 3.17 0 00-1.28-.28.882.882 0 00-1 .75.752.752 0 000 .15c0 1.1 2.77.64 2.77 2.79-.07 1.39-1.13 1.97-2.46 1.97h.05zm10.06-5.59h-1.84v5.42h-1.29v-5.42h-1.82v-1h4.9l.05 1zm62.49 2.21a2.092 2.092 0 001.89 2.27h.26a3.71 3.71 0 001.39-.25v1.1c-.473.11-.955.178-1.44.2-2.05 0-3.46-1-3.46-3.23a3.145 3.145 0 011.667-3.09c.368-.193.77-.312 1.183-.35.203-.02.407-.02.61 0 .491.002.979.09 1.44.26l-.08 1.08a2.408 2.408 0 00-1.38-.34 2.141 2.141 0 00-2.13 2.35h.05zm11.14 3.23l-.54-1.46h-2.57l-.56 1.46h-1.31l2.46-6.44h1.44l2.49 6.44h-1.41zm9.67 0h-1.56l-2.42-4.8v4.8h-1.24v-6.44h1.57l2.41 4.8v-4.8H142l.08 6.44zm8 0l-.59-1.46h-2.59l-.56 1.46H145l2.49-6.44H149l2.51 6.44h-1.43zm6.21 0h-1.74v-6.44h1.74c1.95 0 3.67.67 3.67 3.21s-1.74 3.21-3.69 3.21l.02.02zm11.42 0l-.54-1.46h-2.56l-.61 1.46h-1.31l2.47-6.44h1.43l2.49 6.44h-1.37z"/>
  <path d="M94.53 50.94l1.05-1.07 11.83-.54.54-.54H96.27l-6.34-7.52 21.2 7.16-7.08 7.19H89.93l1.41-1.44 11.83-.54.52-.54H92.4l1.05-1.08 11.83-.54.54-.54H94.53z"/>
</svg>
